!!!COM: Palestrina, Giovanni Perluigi da
!!!OPR: Missa Ave regina coelorum
!!!OMD: Credo
!!!OTL: Crucifixus
**kern	**kern	**kern
*Ibass	*Itenor	*Icalto
!Bassus	!Tenor	!Altus
*clefF4	*clefGv2	*clefG2
*k[]	*k[]	*k[]
*C:ion	*C:ion	*C:ion
*M4/2	*M4/2	*M4/2
=99	=99	=99
1r	0c	0r
[1c	.	.
=100	=100	=100
1c]	1e	0r
1A	1f	.
=101	=101	=101
1B	1g	0r
1c	2r	.
.	[2g	.
=102	=102	=102
1.c	2g]	0r
.	2f	.
.	2e	.
2B	2d	.
=103	=103	=103
2A	2f	1r
2G	2.e	.
2.A	.	[1c
.	4d	.
.	4c	.
4G	4B	.
=104	=104	=104
4F	4A	1c]
4E	4G	.
2F	2A	.
2.E	2G	1e
.	[2c	.
8D	.	.
8C	.	.
=105	=105	=105
1D	2c]	1f
.	2B	.
2C	[1e	1g
[2c	.	.
=106	=106	=106
2c]	2e]	2r
2B	2d	1g
1A	[1c	.
.	.	2f
=107	=107	=107
1G	2c]	2e
.	2B	2d
4F	4A	2f
4G	4B	.
4A	4c	[2e
4B	4d	.
=108	=108	=108
1c	1e	4e]
.	.	4d
.	.	1c
1G	1d	.
.	.	2B
=109	=109	=109
2r	[0c	2c
2C	.	2g
[1F	.	[1a
=110	=110	=110
2F]	1c]	2a]
2E	.	2g
2D	2r	2f
2C	2g	2e
=111	=111	=111
4F	1.a	1f
4G	.	.
4A	.	.
4B	.	.
2.c	.	1e
.	2g	.
4B	.	.
=112	=112	=112
2A	2f	0r
2G	2e	.
2.A	4f	.
.	4e	.
.	[2e	.
4G	.	.
=113	=113	=113
1F	4e]	2r
.	8d	.
.	8c	.
.	2d	1a
1E	2e	.
.	[2e	2g
=114	=114	=114
0r	2e]	2cc
.	2d	2b
.	2f	2a
.	2e	2g
=115	=115	=115
2r	2d	2f
1A	2c	4e
.	.	4d
.	1B	[1e
2G	.	.
=116	=116	=116
2c	2A	1e]
2B	2G	.
2A	2c	2r
2G	2B	[2e
=117	=117	=117
1F	2A	2e]
.	2A	2d
1E	2B	[1g
.	[2e	.
=118	=118	=118
2C	2e]	2g]
2D	2d	2f
2E	2.g	2e
2G	.	2d
.	4f	.
=119	=119	=119
1C	2e	2.c
.	2d	.
.	.	4d
1C	1c	1e
=120	=120	=120
1G	1B	1d
1r	1r	1r
*-	*-	*-
!!!CDT: 1525/^1526/-1594/2/2
!!!OCY: Italia
!!!AGN: Mass (Paraphrase)
!!!AST: renaissance, vocal
!!!ASW: Antiphon
!!!PWK: Masses, Book 9
!!!RNB: Cadence finals: G
!!!YOR: Le Opere Complete, v. 25, p. 1
!!!YOO: Rome, Italy: Fratelli Scalera
!!!END: 1992//
!!!EED: John Miller
!!!YEC: Copyright 2000, John Miller
!!!YEN: United States of America
!!!YEM: Rights to all derivative electronic formats reserved.
!!!YEM: Refer to licensing agreement for further details.
!!!YEM: This file must be accompanied by the licensing agreement.
!!!YEM: A copy of the licensing agreement may be found at http://www.music-cog.ohio-state.edu/HumdrumDatabases/Palestrina/license.txt
!!!EMD: converted to Humdrum by Bret Aarden
